X: 34699
T: Road To Eyries, The
R: hornpipe
M: 4/4
K: Gmajor
|:BA|GDGA BABd|gfeg d2 Bc|dgdB cBce|dBcB ADFA|
GDGA BABd|gfeg d2 Bc|dgdB cAFA|GFGA G2:|
|:Bc|dGBd gBdg|bc'ba g2 (3efg|adbd c'3b|(3aba (3gfe dcBc|
dGBd gfga|bgab c'afa|gdBd cAFA|GFGA G2:|

